public/assets/images/icons/sun.svg

<svg width="22" height="22" viewBox="0 0 12 12" fill="none" xmlns="http://www.w3.org/2000/svg">
<path d="M5.93997 1.84497V2.29997V1.84497ZM5.93997 9.57997V10.035V9.57997ZM10.035 5.93997H9.57997H10.035ZM2.29997 5.93997H1.84497H2.29997ZM8.83559 8.83559L8.51391 8.51391L8.83559 8.83559ZM3.36604 3.36604L3.04435 3.04435L3.36604 3.36604ZM8.83559 3.04435L8.51391 3.36604L8.83559 3.04435ZM3.36604 8.51391L3.04435 8.83559L3.36604 8.51391ZM7.75997 5.93997C7.75997 6.42267 7.56822 6.88559 7.22691 7.22691C6.88559 7.56822 6.42267 7.75997 5.93997 7.75997C5.45728 7.75997 4.99435 7.56822 4.65304 7.22691C4.31172 6.88559 4.11997 6.42267 4.11997 5.93997C4.11997 5.45728 4.31172 4.99435 4.65304 4.65304C4.99435 4.31172 5.45728 4.11997 5.93997 4.11997C6.42267 4.11997 6.88559 4.31172 7.22691 4.65304C7.56822 4.99435 7.75997 5.45728 7.75997 5.93997V5.93997Z" stroke="black" stroke-linecap="round" stroke-linejoin="round"/>
</svg>

<svg width="22" height="22" viewBox="0 0 12 12" fill="none" xmlns="http://www.w3.org/2000/svg"><path d="M5.94 1.845V2.3v-.455Zm0 7.735v.455-.455Zm4.095-3.64H9.58h.455Zm-7.735 0h-.455.455Zm6.536 2.896-.322-.322.322.322Zm-5.47-5.47-.322-.322.322.322Zm5.47-.322-.322.322.322-.322Zm-5.47 5.47-.322.322.322-.322ZM7.76 5.94a1.82 1.82 0 1 1-3.64 0 1.82 1.82 0 0 1 3.64 0v0Z" stroke="#000" stroke-linecap="round" stroke-linejoin="round"/></svg>
